Costumes/T-glow.svg

<?xml version="1.0" encoding="UTF-8" standalone="no"?>
<svg
   version="1.1"
   width="70.277138"
   height="77.380791"
   id="svg8"
   sodipodi:docname="T-glow.svg"
   xmlns:inkscape="http://www.inkscape.org/namespaces/inkscape"
   xmlns:sodipodi="http://sodipodi.sourceforge.net/DTD/sodipodi-0.dtd"
   xmlns="http://www.w3.org/2000/svg"
   xmlns:svg="http://www.w3.org/2000/svg">
  <defs
     id="defs12" />
  <sodipodi:namedview
     id="namedview10"
     pagecolor="#ffffff"
     bordercolor="#000000"
     borderopacity="0.25"
     inkscape:showpageshadow="2"
     inkscape:pageopacity="0.0"
     inkscape:pagecheckerboard="0"
     inkscape:deskcolor="#d1d1d1" />
  <!-- Exported by Scratch - http://scratch.mit.edu/ -->
  <g
     id="ID0.027221741154789925"
     transform="translate(0,-2.1272872e-4)">
    <g
       id="ID0.13632358890026808">
      <g
         id="ID0.9708093735389411">
        <path
           id="ID0.06298611359670758"
           fill="#00cccc"
           d="m 69.99,16.881 c -0.04,0.17 -0.07,0.34 -0.12,0.51 -0.15,0.63 -0.46,2.12 -0.77,5.03 0,0.05 0,0.09 -0.01,0.12 1.71,6.88 -1.17,11.07 -3.08,12.98 -0.12,0.13 -0.25,0.25 -0.39,0.37 -1.87,1.7 -5.14,3.73 -10.02,3.73 -2.43,0 -4.7,-0.54 -6.68,-1.53 0.05,2.73 0.08,6.49 0.08,11.71 1.8,0.63 3.45,1.65 4.85,2.99 2.78,2.67 4.3,6.24 4.3,10.05 0,5.66 -3.26,10.58 -8.51,12.83 -0.13,0.06 -0.27,0.12 -0.4,0.17 -1.76,0.67 -3.74,1 -6.06,1 -0.84,0 -1.74,-0.04 -2.72,-0.13 -0.6,-0.03 -1.48,-0.02 -2.52,0.01 -1.89,0.21 -4.55,0.42 -8.11,0.62 -0.07,0 -0.14,0.01 -0.22,0.01 -0.47,0.02 -0.92,0.03 -1.36,0.03 -6.37,0 -11.02,-2.02 -13.83,-5.99 -0.06,-0.08 -0.11,-0.16 -0.16,-0.24 -2.86,-4.27 -2.94,-9.67 -0.22,-14.08 0.02,-0.05 0.05,-0.09 0.08,-0.14 1.73,-2.72 4.26,-4.66 7.54,-5.8 0.04,-1.93 0.03,-4.35 -0.03,-7.22 -1.63,0.68 -3.51,1.08 -5.62,1.08 -5.57,0 -10.17,-3.31 -11.77,-8.34 -0.33,-1.02 -0.64,-2.51 -1.36,-5.87 -0.03,-0.12 -0.05,-0.24 -0.07,-0.36 L 1.33,22.151 C 1.28,21.971 1.21,21.761 1.13,21.521 0.36,19.331 0,17.471 0,15.671 c 0,-2.23 0.65,-5.6 3.73,-8.96 1.55,-1.7 4.37,-3.9 8.91,-4.61 0.56,-0.09 1.13,-0.14 1.7,-0.14 H 25.4 c 0.25,0 0.5,0.01 0.75,0.03 4.22,0.15 8,0.14 11.24,-0.01 4.53,-0.2 9.05,-0.59 13.48,-1.16 0.5,-0.16 1.04,-0.32 1.62,-0.46 0.55,-0.14 1.11,-0.23 1.67,-0.29 4.26,-0.39 8.23,0.84 11.32,3.48 3.83,3.29 5.52,8.27 4.51,13.33 z" />
      </g>
    </g>
    <g
       id="ID0.7974055809900165">
      <path
         id="ID0.05948115512728691"
         fill="#ffffff"
         d="m 59.202,14.725 c -0.41,1.643 -0.762,3.87 -1.055,6.685 -0.119,1.408 -0.061,2.551 0.176,3.431 0.408,1.467 0.381,2.435 -0.088,2.903 -0.646,0.586 -1.525,0.879 -2.639,0.879 -1.291,0 -2.143,-0.383 -2.551,-1.151 -0.061,-2.362 -0.031,-4.578 0.088,-6.646 0.115,-2.54 0.176,-3.869 0.176,-3.987 -0.061,0 -0.148,-0.059 -0.264,-0.178 -5.455,0.237 -10.586,0.589 -15.394,1.059 -0.118,0.589 -0.118,1.528 0,2.82 0.233,1.822 0.352,2.88 0.352,3.172 -0.234,1.822 -0.352,4.524 -0.352,8.109 0.233,1.528 0.352,8.08 0.352,19.655 v 6.435 c 0,0.999 0.145,1.704 0.436,2.115 h 5.401 c 0.987,-0.117 1.785,0.118 2.396,0.704 0.609,0.587 0.914,1.29 0.914,2.11 0,1.289 -0.615,2.199 -1.847,2.728 -0.763,0.292 -2.111,0.352 -4.046,0.176 -0.938,-0.06 -2.317,-0.06 -4.135,0 -1.642,0.204 -4.28,0.409 -7.916,0.615 -3.167,0.117 -5.102,-0.323 -5.806,-1.319 -0.47,-0.703 -0.47,-1.437 0,-2.199 0.82,-1.289 2.961,-1.935 6.422,-1.935 1.231,0 1.992,-0.102 2.286,-0.307 0.293,-0.205 0.44,-0.601 0.44,-1.187 0,-0.526 0,-1.023 0,-1.492 0,-0.877 0,-2.165 0,-3.862 0.176,-2.983 0.176,-7.432 0,-13.343 C 32.313,32.23 32.43,24.77 32.9,18.332 c -0.059,-0.058 -0.147,-0.146 -0.266,-0.264 -2.123,0.118 -5.543,0.059 -10.26,-0.177 -0.531,0 -2.331,0.119 -5.396,0.353 0.762,5.337 1.231,9.354 1.407,12.051 0,0.352 -0.059,1.144 -0.176,2.375 -0.059,0.879 -0.792,1.319 -2.199,1.319 -0.763,0 -1.202,-0.262 -1.319,-0.785 -0.059,-0.115 -0.411,-1.687 -1.056,-4.711 -0.352,-1.977 -0.851,-4.769 -1.495,-8.375 0,-0.23 -0.206,-0.957 -0.615,-2.18 C 11.175,16.949 11,16.193 11,15.67 c 0,-0.406 0.277,-0.917 0.836,-1.526 0.557,-0.61 1.393,-1.004 2.507,-1.179 0.176,0 0.453,0 0.836,0 0.38,0 0.688,0 0.923,0 6.979,0 10.028,0 9.148,0 4.75,0.177 8.972,0.177 12.666,0 5.277,-0.233 10.495,-0.703 15.657,-1.407 0.352,-0.176 0.879,-0.352 1.582,-0.527 1.291,-0.117 2.346,0.176 3.168,0.88 0.82,0.702 1.113,1.641 0.879,2.814 z" />
    </g>
  </g>
</svg>

<svg version="1.1" width="71" height="78" xmlns="http://www.w3.org/2000/svg" xmlns:xlink="http://www.w3.org/1999/xlink">
  <!-- Exported by Scratch - http://scratch.mit.edu/ -->
  <g id="ID0.027221741154789925">
    <g id="ID0.13632358890026808">
      <g id="ID0.9708093735389411">
        <path id="ID0.06298611359670758" fill="#00CCCC" d="M 69.990 16.881 C 69.950 17.051 69.920 17.221 69.870 17.391 C 69.720 18.021 69.410 19.511 69.100 22.421 C 69.100 22.471 69.100 22.511 69.090 22.541 C 70.800 29.421 67.920 33.611 66.010 35.521 C 65.890 35.651 65.760 35.771 65.620 35.891 C 63.750 37.591 60.480 39.621 55.600 39.621 C 53.170 39.621 50.900 39.081 48.920 38.091 C 48.970 40.821 49 44.581 49 49.801 C 50.800 50.431 52.450 51.451 53.850 52.791 C 56.630 55.461 58.150 59.031 58.150 62.841 C 58.150 68.501 54.890 73.421 49.640 75.671 C 49.510 75.731 49.370 75.791 49.240 75.841 C 47.480 76.511 45.500 76.841 43.180 76.841 C 42.340 76.841 41.440 76.801 40.460 76.711 C 39.860 76.681 38.980 76.691 37.940 76.721 C 36.050 76.931 33.390 77.141 29.830 77.341 C 29.760 77.341 29.690 77.351 29.610 77.351 C 29.140 77.371 28.690 77.381 28.250 77.381 C 21.880 77.381 17.230 75.361 14.420 71.391 C 14.360 71.311 14.310 71.231 14.260 71.151 C 11.400 66.881 11.320 61.481 14.040 57.071 C 14.060 57.021 14.090 56.981 14.120 56.931 C 15.850 54.211 18.380 52.271 21.660 51.131 C 21.700 49.201 21.690 46.781 21.630 43.911 C 20 44.591 18.120 44.991 16.010 44.991 C 10.440 44.991 5.840 41.681 4.240 36.651 C 3.910 35.631 3.600 34.141 2.880 30.781 C 2.850 30.661 2.830 30.541 2.810 30.421 L 1.330 22.151 C 1.280 21.971 1.210 21.761 1.130 21.521 C 0.360 19.331 0 17.471 0 15.671 C 0 13.441 0.650 10.071 3.730 6.711 C 5.280 5.011 8.100 2.811 12.640 2.101 C 13.200 2.011 13.770 1.961 14.340 1.961 L 25.400 1.961 C 25.650 1.961 25.900 1.971 26.150 1.991 C 30.370 2.141 34.150 2.131 37.390 1.981 C 41.920 1.781 46.440 1.391 50.870 0.821 C 51.370 0.661 51.910 0.501 52.490 0.361 C 53.040 0.221 53.600 0.131 54.160 0.071 C 58.420 -0.319 62.390 0.911 65.480 3.551 C 69.310 6.841 71 11.821 69.990 16.881 Z "/>
      </g>
    </g>
    <g id="ID0.7974055809900165">
      <path id="ID0.05948115512728691" fill="#FFFFFF" d="M 59.202 14.725 C 58.792 16.368 58.440 18.595 58.147 21.410 C 58.028 22.818 58.086 23.961 58.323 24.841 C 58.731 26.308 58.704 27.276 58.235 27.744 C 57.589 28.330 56.710 28.623 55.596 28.623 C 54.305 28.623 53.453 28.240 53.045 27.472 C 52.984 25.110 53.014 22.894 53.133 20.826 C 53.248 18.286 53.309 16.957 53.309 16.839 C 53.248 16.839 53.161 16.780 53.045 16.661 C 47.590 16.898 42.459 17.250 37.651 17.720 C 37.533 18.309 37.533 19.248 37.651 20.540 C 37.884 22.362 38.003 23.420 38.003 23.712 C 37.769 25.534 37.651 28.236 37.651 31.821 C 37.884 33.349 38.003 39.901 38.003 51.476 L 38.003 57.911 C 38.003 58.910 38.148 59.615 38.439 60.026 L 43.840 60.026 C 44.827 59.909 45.625 60.144 46.236 60.730 C 46.845 61.317 47.150 62.020 47.150 62.840 C 47.150 64.129 46.535 65.039 45.303 65.568 C 44.540 65.860 43.192 65.920 41.257 65.744 C 40.319 65.684 38.940 65.684 37.122 65.744 C 35.480 65.948 32.842 66.153 29.206 66.359 C 26.039 66.476 24.104 66.036 23.400 65.040 C 22.930 64.337 22.930 63.603 23.400 62.841 C 24.220 61.552 26.361 60.906 29.822 60.906 C 31.053 60.906 31.814 60.804 32.108 60.599 C 32.401 60.394 32.548 59.998 32.548 59.412 C 32.548 58.886 32.548 58.389 32.548 57.920 C 32.548 57.043 32.548 55.755 32.548 54.058 C 32.724 51.075 32.724 46.626 32.548 40.715 C 32.313 32.230 32.430 24.770 32.900 18.332 C 32.841 18.274 32.753 18.186 32.634 18.068 C 30.511 18.186 27.091 18.127 22.374 17.891 C 21.843 17.891 20.043 18.010 16.978 18.244 C 17.740 23.581 18.209 27.598 18.385 30.295 C 18.385 30.647 18.326 31.439 18.209 32.670 C 18.150 33.549 17.417 33.989 16.010 33.989 C 15.247 33.989 14.808 33.727 14.691 33.204 C 14.632 33.089 14.280 31.517 13.635 28.493 C 13.283 26.516 12.784 23.724 12.140 20.118 C 12.140 19.888 11.934 19.161 11.525 17.938 C 11.175 16.949 11 16.193 11 15.670 C 11 15.264 11.277 14.753 11.836 14.144 C 12.393 13.534 13.229 13.140 14.343 12.965 C 14.519 12.965 14.796 12.965 15.179 12.965 C 15.559 12.965 15.867 12.965 16.102 12.965 C 23.081 12.965 26.130 12.965 25.250 12.965 C 30 13.142 34.222 13.142 37.916 12.965 C 43.193 12.732 48.411 12.262 53.573 11.558 C 53.925 11.382 54.452 11.206 55.155 11.031 C 56.446 10.914 57.501 11.207 58.323 11.911 C 59.143 12.613 59.436 13.552 59.202 14.725 Z "/>
    </g>
  </g>
</svg>
